X:0961
T:Waes my Heart that we should sunder.
M:C
L:1/8
Q:1/4=100 "Slow"
I: :: ||
Z:Jack Campin * www.campin.me.uk * 2009
K:D
d|AFAB A2Ad|BABc  B2AB|d2 de faef|   dcde f2{g}a
A|F2EF A2Ad|B2AG Hg2b2|a3  f gfed|   B3 A B2d :|
d|gfga b2ag|fefg  a2gf|ed`ef afef|   d2de f2  Ha
A|F2EF A2Ad|B2AG Hg3 b|a>bag gfed|{c}B3 A B2d :|

